icons/svg/sport/rugby_union.svg

<?xml version="1.0" encoding="UTF-8" standalone="no"?>
<!-- Created with Inkscape (http://www.inkscape.org/) -->

<svg
   xmlns:dc="http://purl.org/dc/elements/1.1/"
   xmlns:cc="http://creativecommons.org/ns#"
   xmlns:rdf="http://www.w3.org/1999/02/22-rdf-syntax-ns#"
   xmlns:svg="http://www.w3.org/2000/svg"
   xmlns="http://www.w3.org/2000/svg"
   xmlns:sodipodi="http://sodipodi.sourceforge.net/DTD/sodipodi-0.dtd"
   xmlns:inkscape="http://www.inkscape.org/namespaces/inkscape"
   version="1.0"
   width="580"
   height="580"
   id="svg2"
   sodipodi:version="0.32"
   inkscape:version="0.48.4 r9939"
   sodipodi:docname="cycling.svg"
   inkscape:output_extension="org.inkscape.output.svg.inkscape">
  <metadata
     id="metadata2975">
    <rdf:RDF>
      <cc:Work
         rdf:about="">
        <dc:format>image/svg+xml</dc:format>
        <dc:type
           rdf:resource="http://purl.org/dc/dcmitype/StillImage" />
        <cc:license
           rdf:resource="http://web.resource.org/cc/PublicDomain" />
        <dc:language>en</dc:language>
        <dc:title></dc:title>
      </cc:Work>
    </rdf:RDF>
  </metadata>
  <sodipodi:namedview
     inkscape:window-height="1004"
     inkscape:window-width="1920"
     inkscape:pageshadow="2"
     inkscape:pageopacity="0.0"
     guidetolerance="10.0"
     gridtolerance="10.0"
     objecttolerance="10.0"
     borderopacity="1.0"
     bordercolor="#666666"
     pagecolor="#ffffff"
     id="base"
     inkscape:zoom="0.46083856"
     inkscape:cx="536.34105"
     inkscape:cy="427.39963"
     inkscape:window-x="1680"
     inkscape:window-y="0"
     inkscape:current-layer="svg2"
     showgrid="false"
     inkscape:window-maximized="1" />
  <defs
     id="defs4">
    <inkscape:perspective
       sodipodi:type="inkscape:persp3d"
       inkscape:vp_x="0 : 290 : 1"
       inkscape:vp_y="0 : 1000 : 0"
       inkscape:vp_z="580 : 290 : 1"
       inkscape:persp3d-origin="290 : 193.33333 : 1"
       id="perspective10" />
  </defs>
  <g
     id="g1327">
    <path
       d="M 66.275,1.768 C 24.94,1.768 1.704,23.139 1.704,66.804 l 0,450.123 c 0,40.844 20.895,62.229 62.192,62.229 l 452.024,0 c 41.307,0 62.229,-20.315 62.229,-62.229 l 0,-450.123 c 0,-42.601 -20.922,-65.036 -63.521,-65.036 -0.004,0 -448.495,-0.143 -448.353,0 z"
       style="fill:#111111;stroke:#eeeeee;stroke-width:3.40799999"
       id="path1329"
       inkscape:connector-curvature="0" />
  </g>
  <path
     inkscape:connector-curvature="0"
     d="m 338.80408,342.20902 c -6.80987,6.80987 -15.8897,6.80987 -24.96953,0 -9.07983,-6.80987 -4.53991,-11.34979 -34.04936,-43.12919 -29.50944,-31.7794 -36.31931,-27.23949 -43.12919,-34.04936 -6.80987,-6.80987 -6.80987,-18.15966 0,-24.96953 l 2.26996,-2.26996 c 6.80987,-6.80987 18.15966,-6.80987 24.96953,0 6.80987,6.80987 9.07983,18.15966 34.04936,43.12919 24.96953,24.96953 36.31932,27.23949 43.12919,34.04936 6.80987,6.80987 6.80987,18.15966 0,24.96953 l -2.26996,2.26996 z"
     id="path3"
     style="fill:#ffffff;fill-opacity:1" />
  <path
     inkscape:connector-curvature="0"
     d="m 282.05515,398.95795 c -6.80987,6.80987 -15.8897,6.80987 -24.96953,0 -9.07983,-6.80987 -4.53991,-11.34979 -34.04936,-43.12919 -29.50944,-31.7794 -36.31932,-27.23949 -43.12919,-34.04936 -6.80987,-6.80987 -6.80987,-18.15966 0,-24.96953 l 2.26996,-2.26996 c 6.80987,-6.80987 18.15966,-6.80987 24.96953,0 6.80987,6.80988 9.07983,18.15966 34.04936,43.12919 24.96953,24.96953 36.31932,27.23949 43.12919,34.04936 6.80987,6.80987 6.80987,18.15966 0,24.96953 l -2.26996,2.26996 z"
     id="path5"
     style="fill:#ffffff;fill-opacity:1" />
  <path
     inkscape:connector-curvature="0"
     d="m 395.55302,285.46008 c -6.80988,6.80988 -15.88971,6.80988 -24.96953,0 -9.07983,-6.80987 -4.53992,-11.34978 -34.04936,-43.12918 -29.50945,-31.77941 -36.31932,-27.23949 -43.12919,-34.04936 -6.80987,-6.80988 -6.80987,-18.15966 0,-24.96953 l 2.26995,-2.26996 c 6.80988,-6.80987 18.15966,-6.80987 24.96953,0 6.80988,6.80987 9.07983,18.15966 34.04936,43.12919 24.96953,24.96953 36.31932,27.23948 43.12919,34.04936 6.80987,6.80987 6.80987,18.15966 0,24.96953 l -2.26995,2.26995 z"
     id="path7"
     style="fill:#ffffff;fill-opacity:1" />
  <g
     transform="matrix(22.699573,0,0,22.699573,16.470145,17.605124)"
     id="g9"
     style="fill:#ffffff;fill-opacity:1">
    <g
       id="g11"
       style="fill:#ffffff;fill-opacity:1">
      <path
         inkscape:connector-curvature="0"
         d="m 17,4 c 1.4,0 2.3,0.3 2.5,0.6 1,1 1,7.2 -3.3,11.6 C 13.3,19 9.6,20 7.1,20 5.7,20 4.8,19.7 4.6,19.4 4.3,19.1 3.8,17.6 4.2,15 4.5,13.4 5.3,10.4 7.9,7.8 10.8,5 14.5,4 17,4 M 17,2 C 13.8,2 9.6,3.3 6.5,6.5 1.6,11.4 1.1,18.8 3.2,20.9 3.9,21.6 5.3,22 7.1,22 10.2,22 14.4,20.7 17.6,17.5 22.5,12.6 23,5.2 20.9,3.1 20.1,2.4 18.7,2 17,2 l 0,0 z"
         id="path13"
         style="fill:#ffffff;fill-opacity:1" />
    </g>
  </g>
  <line
     style="fill:none;stroke:#ffffff;stroke-width:45.39914703;stroke-linejoin:round;stroke-miterlimit:10;stroke-opacity:1"
     stroke-miterlimit="10"
     x1="391.01318"
     y1="187.85205"
     x2="186.71704"
     y2="392.14822"
     id="line15" />
  <line
     style="fill:none;stroke:#ffffff;stroke-width:45.39914703;stroke-linejoin:round;stroke-miterlimit:10;stroke-opacity:1"
     stroke-miterlimit="10"
     x1="470.46167"
     y1="108.40354"
     x2="413.71277"
     y2="165.15248"
     id="line17" />
  <line
     style="fill:none;stroke:#ffffff;stroke-width:45.39914703;stroke-linejoin:round;stroke-miterlimit:10;stroke-opacity:1"
     stroke-miterlimit="10"
     x1="164.01746"
     y1="414.84778"
     x2="107.26852"
     y2="471.59674"
     id="line19" />
</svg>

<svg width="580" height="580" viewBox="0 0 580 580" fill="none" xmlns="http://www.w3.org/2000/svg">
<g clip-path="url(#clip0)">
<path d="M66.2751 1.76815C24.9401 1.76815 1.7041 23.1391 1.7041 66.8041V516.927C1.7041 557.771 22.5991 579.156 63.8961 579.156H515.92C557.227 579.156 578.149 558.841 578.149 516.927V66.8041C578.149 24.2031 557.227 1.76815 514.628 1.76815C514.624 1.76815 66.1331 1.62515 66.2751 1.76815V1.76815Z" fill="#111111" stroke="#EEEEEE" stroke-width="3.408"/>
<path d="M338.804 342.209C331.994 349.019 322.914 349.019 313.835 342.209C304.755 335.399 309.295 330.859 279.785 299.08C250.276 267.3 243.466 271.84 236.656 265.03C229.846 258.221 229.846 246.871 236.656 240.061L238.926 237.791C245.736 230.981 257.086 230.981 263.895 237.791C270.705 244.601 272.975 255.951 297.945 280.92C322.914 305.89 334.264 308.16 341.074 314.97C347.884 321.779 347.884 333.129 341.074 339.939L338.804 342.209V342.209Z" fill="white"/>
<path d="M282.055 398.958C275.245 405.768 266.165 405.768 257.086 398.958C248.006 392.148 252.546 387.608 223.036 355.829C193.527 324.049 186.717 328.589 179.907 321.779C173.097 314.97 173.097 303.62 179.907 296.81L182.177 294.54C188.987 287.73 200.337 287.73 207.146 294.54C213.956 301.35 216.226 312.7 241.196 337.669C266.165 362.639 277.515 364.909 284.325 371.719C291.135 378.528 291.135 389.878 284.325 396.688L282.055 398.958V398.958Z" fill="white"/>
<path d="M395.553 285.46C388.743 292.27 379.663 292.27 370.584 285.46C361.504 278.65 366.044 274.11 336.534 242.331C307.025 210.551 300.215 215.091 293.405 208.281C286.595 201.472 286.595 190.122 293.405 183.312L295.675 181.042C302.485 174.232 313.835 174.232 320.644 181.042C327.454 187.852 329.724 199.202 354.694 224.171C379.663 249.141 391.013 251.411 397.823 258.221C404.633 265.03 404.633 276.38 397.823 283.19L395.553 285.46Z" fill="white"/>
<path d="M402.363 108.404C434.142 108.404 454.572 115.213 459.112 122.023C481.811 144.723 481.811 285.46 384.203 385.338C318.374 448.897 234.386 471.597 177.637 471.597C145.858 471.597 125.428 464.787 120.888 457.977C114.078 451.167 102.728 417.118 111.808 358.099C118.618 321.78 136.778 253.681 195.797 194.662C261.625 131.103 345.614 108.404 402.363 108.404ZM402.363 63.0044C329.724 63.0044 234.386 92.5138 164.017 165.152C52.7893 276.38 41.4396 444.357 89.1087 492.026C104.998 507.916 136.778 516.996 177.637 516.996C248.006 516.996 343.344 487.486 415.983 414.848C527.21 303.62 538.56 135.643 490.891 87.9739C472.731 72.0842 440.952 63.0044 402.363 63.0044Z" fill="white"/>
<path d="M391.013 187.852L186.717 392.148" stroke="white" stroke-width="45.3991" stroke-miterlimit="10" stroke-linejoin="round"/>
<path d="M470.462 108.403L413.713 165.152" stroke="white" stroke-width="45.3991" stroke-miterlimit="10" stroke-linejoin="round"/>
<path d="M164.017 414.848L107.269 471.597" stroke="white" stroke-width="45.3991" stroke-miterlimit="10" stroke-linejoin="round"/>
</g>
<defs>
<clipPath id="clip0">
<path d="M0 0H580V580H0V0Z" fill="white"/>
</clipPath>
</defs>
</svg>
